VSCO Film Essentials - Sony/SO - Fuji Provia 400X +++.xmp
<x:xmpmeta xmlns:x="adobe:ns:meta/" x:xmptk="Adobe XMP Core 5.6-c140 79.160451, 2017/05/06-01:08:21        ">
 <rdf:RDF xmlns:rdf="http://www.w3.org/1999/02/22-rdf-syntax-ns#">
  <rdf:Description rdf:about=""
    xmlns:crs="http://ns.adobe.com/camera-raw-settings/1.0/"
   crs:PresetType="Normal"
   crs:Cluster="暗房商店 02 VSCO Film Essentials"
   crs:UUID="AE2C53B5803AEF7928445783E180E04F"
   crs:SupportsAmount="False"
   crs:SupportsColor="True"
   crs:SupportsMonochrome="True"
   crs:SupportsHighDynamicRange="True"
   crs:SupportsNormalDynamicRange="True"
   crs:SupportsSceneReferred="True"
   crs:SupportsOutputReferred="True"
   crs:CameraModelRestriction=""
   crs:Copyright="暗房商店 © Darkroom Store 2019-2022"
   crs:ContactInfo="https://darkroom.taobao.com"
   crs:Version="13.3"
   crs:ProcessVersion="6.7"
   crs:Contrast2012="0"
   crs:Highlights2012="-25"
   crs:Shadows2012="+15"
   crs:Whites2012="-15"
   crs:Blacks2012="+5"
   crs:Clarity2012="0"
   crs:Vibrance="0"
   crs:Saturation="-10"
   crs:ParametricShadows="0"
   crs:ParametricDarks="0"
   crs:ParametricLights="0"
   crs:ParametricHighlights="0"
   crs:ParametricShadowSplit="14"
   crs:ParametricMidtoneSplit="60"
   crs:ParametricHighlightSplit="75"
   crs:Sharpness="40"
   crs:SharpenRadius="+1.2"
   crs:SharpenDetail="25"
   crs:SharpenEdgeMasking="0"
   crs:HueAdjustmentRed="+10"
   crs:HueAdjustmentOrange="+5"
   crs:HueAdjustmentYellow="-5"
   crs:HueAdjustmentGreen="+12"
   crs:HueAdjustmentAqua="0"
   crs:HueAdjustmentBlue="+10"
   crs:HueAdjustmentPurple="+30"
   crs:HueAdjustmentMagenta="+15"
   crs:SaturationAdjustmentRed="-10"
   crs:SaturationAdjustmentOrange="-5"
   crs:SaturationAdjustmentYellow="0"
   crs:SaturationAdjustmentGreen="-30"
   crs:SaturationAdjustmentAqua="0"
   crs:SaturationAdjustmentBlue="+25"
   crs:SaturationAdjustmentPurple="-10"
   crs:SaturationAdjustmentMagenta="-20"
   crs:LuminanceAdjustmentRed="-15"
   crs:LuminanceAdjustmentOrange="-8"
   crs:LuminanceAdjustmentYellow="0"
   crs:LuminanceAdjustmentGreen="-25"
   crs:LuminanceAdjustmentAqua="-15"
   crs:LuminanceAdjustmentBlue="-10"
   crs:LuminanceAdjustmentPurple="-10"
   crs:LuminanceAdjustmentMagenta="+5"
   crs:SplitToningShadowHue="0"
   crs:SplitToningShadowSaturation="0"
   crs:SplitToningHighlightHue="220"
   crs:SplitToningHighlightSaturation="0"
   crs:SplitToningBalance="0"
   crs:ColorGradeMidtoneHue="0"
   crs:ColorGradeMidtoneSat="0"
   crs:ColorGradeShadowLum="0"
   crs:ColorGradeMidtoneLum="0"
   crs:ColorGradeHighlightLum="0"
   crs:ColorGradeBlending="50"
   crs:ColorGradeGlobalHue="0"
   crs:ColorGradeGlobalSat="0"
   crs:ColorGradeGlobalLum="0"
   crs:GrainAmount="45"
   crs:GrainSize="35"
   crs:GrainFrequency="40"
   crs:ShadowTint="0"
   crs:RedHue="+10"
   crs:RedSaturation="+5"
   crs:GreenHue="+10"
   crs:GreenSaturation="-10"
   crs:BlueHue="-10"
   crs:BlueSaturation="+25"
   crs:ConvertToGrayscale="False"
   crs:ToneCurveName2012="Provia 400X +++"
   crs:CameraProfile="Fuji Provia 400X - SO"
   crs:HasSettings="True">
   <crs:Name>
    <rdf:Alt>
     <rdf:li xml:lang="x-default">SO - Fuji Provia 400X +++</rdf:li>
    </rdf:Alt>
   </crs:Name>
   <crs:ShortName>
    <rdf:Alt>
     <rdf:li xml:lang="x-default"/>
    </rdf:Alt>
   </crs:ShortName>
   <crs:SortName>
    <rdf:Alt>
     <rdf:li xml:lang="x-default"/>
    </rdf:Alt>
   </crs:SortName>
   <crs:Group>
    <rdf:Alt>
     <rdf:li xml:lang="x-default">暗房商店 - VSCO FE 臻选胶片(Sony)</rdf:li>
    </rdf:Alt>
   </crs:Group>
   <crs:Description>
    <rdf:Alt>
     <rdf:li xml:lang="x-default"/>
    </rdf:Alt>
   </crs:Description>
   <crs:ToneCurvePV2012>
    <rdf:Seq>
     <rdf:li>0, 29</rdf:li>
     <rdf:li>31, 44</rdf:li>
     <rdf:li>121, 120</rdf:li>
     <rdf:li>221, 218</rdf:li>
     <rdf:li>255, 248</rdf:li>
    </rdf:Seq>
   </crs:ToneCurvePV2012>
   <crs:ToneCurvePV2012Red>
    <rdf:Seq>
     <rdf:li>0, 0</rdf:li>
     <rdf:li>47, 17</rdf:li>
     <rdf:li>117, 121</rdf:li>
     <rdf:li>178, 202</rdf:li>
     <rdf:li>235, 242</rdf:li>
     <rdf:li>255, 255</rdf:li>
    </rdf:Seq>
   </crs:ToneCurvePV2012Red>
   <crs:ToneCurvePV2012Green>
    <rdf:Seq>
     <rdf:li>0, 0</rdf:li>
     <rdf:li>43, 20</rdf:li>
     <rdf:li>117, 120</rdf:li>
     <rdf:li>182, 199</rdf:li>
     <rdf:li>255, 255</rdf:li>
    </rdf:Seq>
   </crs:ToneCurvePV2012Green>
   <crs:ToneCurvePV2012Blue>
    <rdf:Seq>
     <rdf:li>0, 4</rdf:li>
     <rdf:li>41, 24</rdf:li>
     <rdf:li>113, 124</rdf:li>
     <rdf:li>175, 206</rdf:li>
     <rdf:li>215, 235</rdf:li>
     <rdf:li>255, 255</rdf:li>
    </rdf:Seq>
   </crs:ToneCurvePV2012Blue>
  </rdf:Description>
 </rdf:RDF>
</x:xmpmeta>
