VSCO Film 05 - Sony/SO - Kodak Max 800 Alt +.xmp
<x:xmpmeta xmlns:x="adobe:ns:meta/" x:xmptk="Adobe XMP Core 5.6-c140 79.160451, 2017/05/06-01:08:21        ">
 <rdf:RDF xmlns:rdf="http://www.w3.org/1999/02/22-rdf-syntax-ns#">
  <rdf:Description rdf:about=""
    xmlns:crs="http://ns.adobe.com/camera-raw-settings/1.0/"
   crs:PresetType="Normal"
   crs:Cluster="  02 VSCO Film for Sony"
   crs:UUID="81E4C2BA1A24A5421B4A42247FFD9054"
   crs:SupportsAmount="False"
   crs:SupportsColor="True"
   crs:SupportsMonochrome="True"
   crs:SupportsHighDynamicRange="True"
   crs:SupportsNormalDynamicRange="True"
   crs:SupportsSceneReferred="True"
   crs:SupportsOutputReferred="True"
   crs:CameraModelRestriction=""
   crs:Copyright=" bojun1995 ©"
   crs:ContactInfo="bojun1995@github.com"
   crs:Version="13.3"
   crs:ProcessVersion="6.7"
   crs:Saturation="-20"
   crs:Sharpness="0"
   crs:ShadowTint="-2"
   crs:RedHue="+20"
   crs:RedSaturation="+85"
   crs:GreenHue="+40"
   crs:GreenSaturation="+10"
   crs:BlueHue="-10"
   crs:BlueSaturation="0"
   crs:Vibrance="0"
   crs:HueAdjustmentRed="+30"
   crs:HueAdjustmentOrange="0"
   crs:HueAdjustmentYellow="0"
   crs:HueAdjustmentGreen="0"
   crs:HueAdjustmentAqua="+10"
   crs:HueAdjustmentBlue="-5"
   crs:HueAdjustmentPurple="+20"
   crs:HueAdjustmentMagenta="+20"
   crs:SaturationAdjustmentRed="-30"
   crs:SaturationAdjustmentOrange="-35"
   crs:SaturationAdjustmentYellow="-5"
   crs:SaturationAdjustmentGreen="-40"
   crs:SaturationAdjustmentAqua="0"
   crs:SaturationAdjustmentBlue="-15"
   crs:SaturationAdjustmentPurple="-35"
   crs:SaturationAdjustmentMagenta="-35"
   crs:LuminanceAdjustmentRed="-15"
   crs:LuminanceAdjustmentOrange="-20"
   crs:LuminanceAdjustmentYellow="0"
   crs:LuminanceAdjustmentGreen="+15"
   crs:LuminanceAdjustmentAqua="+10"
   crs:LuminanceAdjustmentBlue="-10"
   crs:LuminanceAdjustmentPurple="+20"
   crs:LuminanceAdjustmentMagenta="+15"
   crs:SplitToningShadowHue="0"
   crs:SplitToningShadowSaturation="0"
   crs:SplitToningHighlightHue="0"
   crs:SplitToningHighlightSaturation="0"
   crs:SplitToningBalance="0"
   crs:ParametricShadows="0"
   crs:ParametricDarks="0"
   crs:ParametricLights="0"
   crs:ParametricHighlights="0"
   crs:ParametricShadowSplit="20"
   crs:ParametricMidtoneSplit="48"
   crs:ParametricHighlightSplit="75"
   crs:SharpenRadius="+1.0"
   crs:SharpenDetail="25"
   crs:SharpenEdgeMasking="0"
   crs:GrainAmount="30"
   crs:GrainSize="30"
   crs:GrainFrequency="85"
   crs:Contrast2012="0"
   crs:Highlights2012="-40"
   crs:Shadows2012="+10"
   crs:Whites2012="-30"
   crs:Blacks2012="0"
   crs:Clarity2012="-5"
   crs:ConvertToGrayscale="False"
   crs:ToneCurveName2012="Max 800 Alt +"
   crs:CameraProfile="Kodak Max 800 - SO"
   crs:HasSettings="True">
   <crs:Name>
    <rdf:Alt>
     <rdf:li xml:lang="x-default">SO - Kodak Max 800 Alt +</rdf:li>
    </rdf:Alt>
   </crs:Name>
   <crs:ShortName>
    <rdf:Alt>
     <rdf:li xml:lang="x-default"/>
    </rdf:Alt>
   </crs:ShortName>
   <crs:SortName>
    <rdf:Alt>
     <rdf:li xml:lang="x-default"/>
    </rdf:Alt>
   </crs:SortName>
   <crs:Group>
    <rdf:Alt>
     <rdf:li xml:lang="x-default">  - VSCO Film 05 </rdf:li>
    </rdf:Alt>
   </crs:Group>
   <crs:Description>
    <rdf:Alt>
     <rdf:li xml:lang="x-default"/>
    </rdf:Alt>
   </crs:Description>
   <crs:ToneCurvePV2012>
    <rdf:Seq>
     <rdf:li>0, 24</rdf:li>
     <rdf:li>22, 30</rdf:li>
     <rdf:li>65, 65</rdf:li>
     <rdf:li>146, 149</rdf:li>
     <rdf:li>187, 185</rdf:li>
     <rdf:li>255, 235</rdf:li>
    </rdf:Seq>
   </crs:ToneCurvePV2012>
   <crs:ToneCurvePV2012Red>
    <rdf:Seq>
     <rdf:li>0, 0</rdf:li>
     <rdf:li>31, 11</rdf:li>
     <rdf:li>109, 120</rdf:li>
     <rdf:li>170, 200</rdf:li>
     <rdf:li>200, 223</rdf:li>
     <rdf:li>255, 255</rdf:li>
    </rdf:Seq>
   </crs:ToneCurvePV2012Red>
   <crs:ToneCurvePV2012Green>
    <rdf:Seq>
     <rdf:li>0, 0</rdf:li>
     <rdf:li>40, 23</rdf:li>
     <rdf:li>112, 123</rdf:li>
     <rdf:li>176, 200</rdf:li>
     <rdf:li>218, 228</rdf:li>
     <rdf:li>255, 249</rdf:li>
    </rdf:Seq>
   </crs:ToneCurvePV2012Green>
   <crs:ToneCurvePV2012Blue>
    <rdf:Seq>
     <rdf:li>0, 0</rdf:li>
     <rdf:li>31, 20</rdf:li>
     <rdf:li>85, 83</rdf:li>
     <rdf:li>121, 135</rdf:li>
     <rdf:li>182, 193</rdf:li>
     <rdf:li>255, 251</rdf:li>
    </rdf:Seq>
   </crs:ToneCurvePV2012Blue>
   <crs:Look
    crs:Name=""/>
  </rdf:Description>
 </rdf:RDF>
</x:xmpmeta>
