VSCO Film 04 - Sony/SO - Fuji Provia 400X Balance Cool.xmp
<x:xmpmeta xmlns:x="adobe:ns:meta/" x:xmptk="Adobe XMP Core 5.6-c140 79.160451, 2017/05/06-01:08:21        ">
 <rdf:RDF xmlns:rdf="http://www.w3.org/1999/02/22-rdf-syntax-ns#">
  <rdf:Description rdf:about=""
    xmlns:crs="http://ns.adobe.com/camera-raw-settings/1.0/"
   crs:PresetType="Normal"
   crs:Cluster="暗房商店 02 VSCO Film for Sony"
   crs:UUID="72C47023B32199A6AA7FEC33DD0AC3D1"
   crs:SupportsAmount="False"
   crs:SupportsColor="True"
   crs:SupportsMonochrome="True"
   crs:SupportsHighDynamicRange="True"
   crs:SupportsNormalDynamicRange="True"
   crs:SupportsSceneReferred="True"
   crs:SupportsOutputReferred="True"
   crs:CameraModelRestriction=""
   crs:Copyright="暗房商店 © Darkroom Store 2019-2022"
   crs:ContactInfo="https://darkroom.taobao.com"
   crs:Version="13.3"
   crs:ProcessVersion="6.7"
   crs:Saturation="0"
   crs:Sharpness="40"
   crs:ShadowTint="0"
   crs:RedHue="+10"
   crs:RedSaturation="+5"
   crs:GreenHue="+10"
   crs:GreenSaturation="-10"
   crs:BlueHue="-15"
   crs:BlueSaturation="+25"
   crs:Vibrance="0"
   crs:HueAdjustmentRed="+10"
   crs:HueAdjustmentOrange="+5"
   crs:HueAdjustmentYellow="-5"
   crs:HueAdjustmentGreen="+15"
   crs:HueAdjustmentAqua="0"
   crs:HueAdjustmentBlue="+10"
   crs:HueAdjustmentPurple="+30"
   crs:HueAdjustmentMagenta="+15"
   crs:SaturationAdjustmentRed="-10"
   crs:SaturationAdjustmentOrange="-5"
   crs:SaturationAdjustmentYellow="0"
   crs:SaturationAdjustmentGreen="-30"
   crs:SaturationAdjustmentAqua="0"
   crs:SaturationAdjustmentBlue="+10"
   crs:SaturationAdjustmentPurple="-10"
   crs:SaturationAdjustmentMagenta="-20"
   crs:LuminanceAdjustmentRed="-15"
   crs:LuminanceAdjustmentOrange="-8"
   crs:LuminanceAdjustmentYellow="0"
   crs:LuminanceAdjustmentGreen="-25"
   crs:LuminanceAdjustmentAqua="-15"
   crs:LuminanceAdjustmentBlue="-15"
   crs:LuminanceAdjustmentPurple="-10"
   crs:LuminanceAdjustmentMagenta="+5"
   crs:SplitToningShadowHue="0"
   crs:SplitToningShadowSaturation="0"
   crs:SplitToningHighlightHue="220"
   crs:SplitToningHighlightSaturation="0"
   crs:SplitToningBalance="0"
   crs:ParametricShadows="0"
   crs:ParametricDarks="0"
   crs:ParametricLights="0"
   crs:ParametricHighlights="0"
   crs:ParametricShadowSplit="14"
   crs:ParametricMidtoneSplit="60"
   crs:ParametricHighlightSplit="75"
   crs:SharpenRadius="+1.2"
   crs:SharpenDetail="25"
   crs:SharpenEdgeMasking="0"
   crs:GrainAmount="25"
   crs:GrainSize="30"
   crs:GrainFrequency="35"
   crs:Contrast2012="0"
   crs:Highlights2012="-25"
   crs:Shadows2012="+15"
   crs:Whites2012="-15"
   crs:Blacks2012="+25"
   crs:Clarity2012="0"
   crs:ConvertToGrayscale="False"
   crs:ToneCurveName2012="Provia 400X Cool"
   crs:CameraProfile="Fuji Provia 400X - SO"
   crs:HasSettings="True">
   <crs:Name>
    <rdf:Alt>
     <rdf:li xml:lang="x-default">SO - Fuji Provia 400X Balance Cool</rdf:li>
    </rdf:Alt>
   </crs:Name>
   <crs:ShortName>
    <rdf:Alt>
     <rdf:li xml:lang="x-default"/>
    </rdf:Alt>
   </crs:ShortName>
   <crs:SortName>
    <rdf:Alt>
     <rdf:li xml:lang="x-default"/>
    </rdf:Alt>
   </crs:SortName>
   <crs:Group>
    <rdf:Alt>
     <rdf:li xml:lang="x-default">暗房商店 - VSCO Film 04 (Sony)</rdf:li>
    </rdf:Alt>
   </crs:Group>
   <crs:Description>
    <rdf:Alt>
     <rdf:li xml:lang="x-default"/>
    </rdf:Alt>
   </crs:Description>
   <crs:ToneCurvePV2012>
    <rdf:Seq>
     <rdf:li>0, 0</rdf:li>
     <rdf:li>255, 255</rdf:li>
    </rdf:Seq>
   </crs:ToneCurvePV2012>
   <crs:ToneCurvePV2012Red>
    <rdf:Seq>
     <rdf:li>0, 0</rdf:li>
     <rdf:li>47, 18</rdf:li>
     <rdf:li>116, 119</rdf:li>
     <rdf:li>181, 202</rdf:li>
     <rdf:li>255, 255</rdf:li>
    </rdf:Seq>
   </crs:ToneCurvePV2012Red>
   <crs:ToneCurvePV2012Green>
    <rdf:Seq>
     <rdf:li>0, 0</rdf:li>
     <rdf:li>43, 20</rdf:li>
     <rdf:li>114, 121</rdf:li>
     <rdf:li>174, 203</rdf:li>
     <rdf:li>255, 255</rdf:li>
    </rdf:Seq>
   </crs:ToneCurvePV2012Green>
   <crs:ToneCurvePV2012Blue>
    <rdf:Seq>
     <rdf:li>0, 0</rdf:li>
     <rdf:li>42, 22</rdf:li>
     <rdf:li>114, 122</rdf:li>
     <rdf:li>177, 205</rdf:li>
     <rdf:li>215, 235</rdf:li>
     <rdf:li>255, 255</rdf:li>
    </rdf:Seq>
   </crs:ToneCurvePV2012Blue>
   <crs:Look
    crs:Name=""/>
  </rdf:Description>
 </rdf:RDF>
</x:xmpmeta>
