07 FujiSensia绿 AgfaUltra绿色蓝色          Ektachrome高饱和风光 Elite城市摄影/SO - Agfa RSX 50 II -.xmp
<x:xmpmeta xmlns:x="adobe:ns:meta/" x:xmptk="Adobe XMP Core 5.6-c140 79.160451, 2017/05/06-01:08:21        ">
 <rdf:RDF xmlns:rdf="http://www.w3.org/1999/02/22-rdf-syntax-ns#">
  <rdf:Description rdf:about=""
    xmlns:crs="http://ns.adobe.com/camera-raw-settings/1.0/"
   crs:PresetType="Normal"
   crs:Cluster="  02 VSCO Film for Sony"
   crs:UUID="DBD735A6EFF281BCDD16AE50AACB50AB"
   crs:SupportsAmount="False"
   crs:SupportsColor="True"
   crs:SupportsMonochrome="True"
   crs:SupportsHighDynamicRange="True"
   crs:SupportsNormalDynamicRange="True"
   crs:SupportsSceneReferred="True"
   crs:SupportsOutputReferred="True"
   crs:CameraModelRestriction=""
   crs:Copyright=" bojun1995 ©"
   crs:ContactInfo="bojun1995@github.com"
   crs:Version="13.3"
   crs:ProcessVersion="6.7"
   crs:Saturation="0"
   crs:Sharpness="25"
   crs:ShadowTint="0"
   crs:RedHue="+20"
   crs:RedSaturation="+40"
   crs:GreenHue="+30"
   crs:GreenSaturation="-55"
   crs:BlueHue="0"
   crs:BlueSaturation="+25"
   crs:Vibrance="0"
   crs:HueAdjustmentRed="+8"
   crs:HueAdjustmentOrange="0"
   crs:HueAdjustmentYellow="-10"
   crs:HueAdjustmentGreen="-15"
   crs:HueAdjustmentAqua="+10"
   crs:HueAdjustmentBlue="+10"
   crs:HueAdjustmentPurple="+20"
   crs:HueAdjustmentMagenta="+15"
   crs:SaturationAdjustmentRed="-15"
   crs:SaturationAdjustmentOrange="-10"
   crs:SaturationAdjustmentYellow="-20"
   crs:SaturationAdjustmentGreen="-10"
   crs:SaturationAdjustmentAqua="-10"
   crs:SaturationAdjustmentBlue="-10"
   crs:SaturationAdjustmentPurple="-20"
   crs:SaturationAdjustmentMagenta="-30"
   crs:LuminanceAdjustmentRed="-15"
   crs:LuminanceAdjustmentOrange="-10"
   crs:LuminanceAdjustmentYellow="-10"
   crs:LuminanceAdjustmentGreen="-20"
   crs:LuminanceAdjustmentAqua="-10"
   crs:LuminanceAdjustmentBlue="-20"
   crs:LuminanceAdjustmentPurple="-10"
   crs:LuminanceAdjustmentMagenta="0"
   crs:SplitToningShadowHue="0"
   crs:SplitToningShadowSaturation="0"
   crs:SplitToningHighlightHue="0"
   crs:SplitToningHighlightSaturation="0"
   crs:SplitToningBalance="0"
   crs:ParametricShadows="0"
   crs:ParametricDarks="0"
   crs:ParametricLights="0"
   crs:ParametricHighlights="0"
   crs:ParametricShadowSplit="31"
   crs:ParametricMidtoneSplit="45"
   crs:ParametricHighlightSplit="68"
   crs:SharpenRadius="+1.0"
   crs:SharpenDetail="25"
   crs:SharpenEdgeMasking="0"
   crs:GrainAmount="10"
   crs:GrainSize="20"
   crs:GrainFrequency="55"
   crs:Contrast2012="0"
   crs:Highlights2012="-35"
   crs:Shadows2012="+15"
   crs:Whites2012="-10"
   crs:Blacks2012="+15"
   crs:Clarity2012="0"
   crs:ConvertToGrayscale="False"
   crs:ToneCurveName2012="Agfa RSX 50 II -"
   crs:CameraProfile="RSX 50 II - SO"
   crs:HasSettings="True">
   <crs:Name>
    <rdf:Alt>
     <rdf:li xml:lang="x-default">SO - Agfa RSX 50 II -</rdf:li>
    </rdf:Alt>
   </crs:Name>
   <crs:ShortName>
    <rdf:Alt>
     <rdf:li xml:lang="x-default"/>
    </rdf:Alt>
   </crs:ShortName>
   <crs:SortName>
    <rdf:Alt>
     <rdf:li xml:lang="x-default"/>
    </rdf:Alt>
   </crs:SortName>
   <crs:Group>
    <rdf:Alt>
     <rdf:li xml:lang="x-default">07 FujiSensia绿 AgfaUltra绿色蓝色        
 Ektachrome高饱和风光 Elite城市摄影</rdf:li>
    </rdf:Alt>
   </crs:Group>
   <crs:Description>
    <rdf:Alt>
     <rdf:li xml:lang="x-default"/>
    </rdf:Alt>
   </crs:Description>
   <crs:ToneCurvePV2012>
    <rdf:Seq>
     <rdf:li>0, 0</rdf:li>
     <rdf:li>18, 21</rdf:li>
     <rdf:li>71, 76</rdf:li>
     <rdf:li>127, 130</rdf:li>
     <rdf:li>255, 255</rdf:li>
    </rdf:Seq>
   </crs:ToneCurvePV2012>
   <crs:ToneCurvePV2012Red>
    <rdf:Seq>
     <rdf:li>0, 0</rdf:li>
     <rdf:li>59, 47</rdf:li>
     <rdf:li>126, 130</rdf:li>
     <rdf:li>192, 202</rdf:li>
     <rdf:li>255, 255</rdf:li>
    </rdf:Seq>
   </crs:ToneCurvePV2012Red>
   <crs:ToneCurvePV2012Green>
    <rdf:Seq>
     <rdf:li>0, 0</rdf:li>
     <rdf:li>59, 50</rdf:li>
     <rdf:li>126, 130</rdf:li>
     <rdf:li>192, 202</rdf:li>
     <rdf:li>255, 255</rdf:li>
    </rdf:Seq>
   </crs:ToneCurvePV2012Green>
   <crs:ToneCurvePV2012Blue>
    <rdf:Seq>
     <rdf:li>0, 0</rdf:li>
     <rdf:li>56, 47</rdf:li>
     <rdf:li>126, 130</rdf:li>
     <rdf:li>192, 200</rdf:li>
     <rdf:li>255, 255</rdf:li>
    </rdf:Seq>
   </crs:ToneCurvePV2012Blue>
   <crs:Look
    crs:Name=""/>
  </rdf:Description>
 </rdf:RDF>
</x:xmpmeta>
