07 FujiSensia绿 AgfaUltra绿色蓝色          Ektachrome高饱和风光 Elite城市摄影/SO - Agfa Optima 100 II Warm.xmp
<x:xmpmeta xmlns:x="adobe:ns:meta/" x:xmptk="Adobe XMP Core 5.6-c140 79.160451, 2017/05/06-01:08:21        ">
 <rdf:RDF xmlns:rdf="http://www.w3.org/1999/02/22-rdf-syntax-ns#">
  <rdf:Description rdf:about=""
    xmlns:crs="http://ns.adobe.com/camera-raw-settings/1.0/"
   crs:PresetType="Normal"
   crs:Cluster="  02 VSCO Film for Sony"
   crs:UUID="92EF78107DA575EA7A4699C4637BDF0D"
   crs:SupportsAmount="False"
   crs:SupportsColor="True"
   crs:SupportsMonochrome="True"
   crs:SupportsHighDynamicRange="True"
   crs:SupportsNormalDynamicRange="True"
   crs:SupportsSceneReferred="True"
   crs:SupportsOutputReferred="True"
   crs:CameraModelRestriction=""
   crs:Copyright=" bojun1995 ©"
   crs:ContactInfo="bojun1995@github.com"
   crs:Version="13.3"
   crs:ProcessVersion="6.7"
   crs:Saturation="-5"
   crs:Sharpness="15"
   crs:ShadowTint="0"
   crs:RedHue="+15"
   crs:RedSaturation="+30"
   crs:GreenHue="+25"
   crs:GreenSaturation="-10"
   crs:BlueHue="+25"
   crs:BlueSaturation="+20"
   crs:Vibrance="0"
   crs:HueAdjustmentRed="+5"
   crs:HueAdjustmentOrange="0"
   crs:HueAdjustmentYellow="0"
   crs:HueAdjustmentGreen="+5"
   crs:HueAdjustmentAqua="-5"
   crs:HueAdjustmentBlue="-15"
   crs:HueAdjustmentPurple="-10"
   crs:HueAdjustmentMagenta="+10"
   crs:SaturationAdjustmentRed="-15"
   crs:SaturationAdjustmentOrange="-5"
   crs:SaturationAdjustmentYellow="+5"
   crs:SaturationAdjustmentGreen="-30"
   crs:SaturationAdjustmentAqua="-15"
   crs:SaturationAdjustmentBlue="-20"
   crs:SaturationAdjustmentPurple="-25"
   crs:SaturationAdjustmentMagenta="-30"
   crs:LuminanceAdjustmentRed="-15"
   crs:LuminanceAdjustmentOrange="0"
   crs:LuminanceAdjustmentYellow="+5"
   crs:LuminanceAdjustmentGreen="-10"
   crs:LuminanceAdjustmentAqua="-15"
   crs:LuminanceAdjustmentBlue="-20"
   crs:LuminanceAdjustmentPurple="-10"
   crs:LuminanceAdjustmentMagenta="0"
   crs:SplitToningShadowHue="0"
   crs:SplitToningShadowSaturation="0"
   crs:SplitToningHighlightHue="0"
   crs:SplitToningHighlightSaturation="0"
   crs:SplitToningBalance="0"
   crs:ParametricShadows="0"
   crs:ParametricDarks="0"
   crs:ParametricLights="0"
   crs:ParametricHighlights="0"
   crs:ParametricShadowSplit="20"
   crs:ParametricMidtoneSplit="39"
   crs:ParametricHighlightSplit="67"
   crs:SharpenRadius="+1.0"
   crs:SharpenDetail="25"
   crs:SharpenEdgeMasking="0"
   crs:GrainAmount="25"
   crs:GrainSize="18"
   crs:GrainFrequency="55"
   crs:Contrast2012="0"
   crs:Highlights2012="-25"
   crs:Shadows2012="+25"
   crs:Whites2012="-25"
   crs:Blacks2012="+35"
   crs:Clarity2012="0"
   crs:ConvertToGrayscale="False"
   crs:ToneCurveName2012="Agfa Optima 100 II Warm"
   crs:CameraProfile="Optima 100 II - SO"
   crs:HasSettings="True">
   <crs:Name>
    <rdf:Alt>
     <rdf:li xml:lang="x-default">SO - Agfa Optima 100 II Warm</rdf:li>
    </rdf:Alt>
   </crs:Name>
   <crs:ShortName>
    <rdf:Alt>
     <rdf:li xml:lang="x-default"/>
    </rdf:Alt>
   </crs:ShortName>
   <crs:SortName>
    <rdf:Alt>
     <rdf:li xml:lang="x-default"/>
    </rdf:Alt>
   </crs:SortName>
   <crs:Group>
    <rdf:Alt>
     <rdf:li xml:lang="x-default">07 FujiSensia绿 AgfaUltra绿色蓝色        
 Ektachrome高饱和风光 Elite城市摄影</rdf:li>
    </rdf:Alt>
   </crs:Group>
   <crs:Description>
    <rdf:Alt>
     <rdf:li xml:lang="x-default"/>
    </rdf:Alt>
   </crs:Description>
   <crs:ToneCurvePV2012>
    <rdf:Seq>
     <rdf:li>0, 0</rdf:li>
     <rdf:li>255, 255</rdf:li>
    </rdf:Seq>
   </crs:ToneCurvePV2012>
   <crs:ToneCurvePV2012Red>
    <rdf:Seq>
     <rdf:li>0, 0</rdf:li>
     <rdf:li>17, 10</rdf:li>
     <rdf:li>75, 70</rdf:li>
     <rdf:li>127, 136</rdf:li>
     <rdf:li>184, 197</rdf:li>
     <rdf:li>255, 255</rdf:li>
    </rdf:Seq>
   </crs:ToneCurvePV2012Red>
   <crs:ToneCurvePV2012Green>
    <rdf:Seq>
     <rdf:li>0, 0</rdf:li>
     <rdf:li>17, 11</rdf:li>
     <rdf:li>78, 70</rdf:li>
     <rdf:li>131, 135</rdf:li>
     <rdf:li>182, 192</rdf:li>
     <rdf:li>209, 216</rdf:li>
     <rdf:li>255, 255</rdf:li>
    </rdf:Seq>
   </crs:ToneCurvePV2012Green>
   <crs:ToneCurvePV2012Blue>
    <rdf:Seq>
     <rdf:li>0, 0</rdf:li>
     <rdf:li>17, 8</rdf:li>
     <rdf:li>80, 68</rdf:li>
     <rdf:li>131, 130</rdf:li>
     <rdf:li>188, 193</rdf:li>
     <rdf:li>255, 255</rdf:li>
    </rdf:Seq>
   </crs:ToneCurvePV2012Blue>
   <crs:Look
    crs:Name=""/>
  </rdf:Description>
 </rdf:RDF>
</x:xmpmeta>
