07 FujiSensia绿 AgfaUltra绿色蓝色          Ektachrome高饱和风光 Elite城市摄影/SO - Kodak Elite 50 II ++.xmp
<x:xmpmeta xmlns:x="adobe:ns:meta/" x:xmptk="Adobe XMP Core 5.6-c140 79.160451, 2017/05/06-01:08:21        ">
 <rdf:RDF xmlns:rdf="http://www.w3.org/1999/02/22-rdf-syntax-ns#">
  <rdf:Description rdf:about=""
    xmlns:crs="http://ns.adobe.com/camera-raw-settings/1.0/"
   crs:PresetType="Normal"
   crs:Cluster="  02 VSCO Film for Sony"
   crs:UUID="CA7BF09CAD2348E792913412550AFA53"
   crs:SupportsAmount="False"
   crs:SupportsColor="True"
   crs:SupportsMonochrome="True"
   crs:SupportsHighDynamicRange="True"
   crs:SupportsNormalDynamicRange="True"
   crs:SupportsSceneReferred="True"
   crs:SupportsOutputReferred="True"
   crs:CameraModelRestriction=""
   crs:Copyright=" bojun1995 ©"
   crs:ContactInfo="bojun1995@github.com"
   crs:Version="13.3"
   crs:ProcessVersion="6.7"
   crs:Saturation="-10"
   crs:Sharpness="25"
   crs:ShadowTint="0"
   crs:RedHue="+20"
   crs:RedSaturation="+30"
   crs:GreenHue="+20"
   crs:GreenSaturation="-50"
   crs:BlueHue="0"
   crs:BlueSaturation="-5"
   crs:Vibrance="0"
   crs:HueAdjustmentRed="+8"
   crs:HueAdjustmentOrange="+5"
   crs:HueAdjustmentYellow="0"
   crs:HueAdjustmentGreen="+15"
   crs:HueAdjustmentAqua="0"
   crs:HueAdjustmentBlue="+15"
   crs:HueAdjustmentPurple="0"
   crs:HueAdjustmentMagenta="0"
   crs:SaturationAdjustmentRed="-15"
   crs:SaturationAdjustmentOrange="0"
   crs:SaturationAdjustmentYellow="0"
   crs:SaturationAdjustmentGreen="0"
   crs:SaturationAdjustmentAqua="0"
   crs:SaturationAdjustmentBlue="0"
   crs:SaturationAdjustmentPurple="-10"
   crs:SaturationAdjustmentMagenta="-10"
   crs:LuminanceAdjustmentRed="-20"
   crs:LuminanceAdjustmentOrange="-10"
   crs:LuminanceAdjustmentYellow="0"
   crs:LuminanceAdjustmentGreen="-5"
   crs:LuminanceAdjustmentAqua="-5"
   crs:LuminanceAdjustmentBlue="-15"
   crs:LuminanceAdjustmentPurple="-5"
   crs:LuminanceAdjustmentMagenta="0"
   crs:SplitToningShadowHue="0"
   crs:SplitToningShadowSaturation="0"
   crs:SplitToningHighlightHue="0"
   crs:SplitToningHighlightSaturation="0"
   crs:SplitToningBalance="0"
   crs:ParametricShadows="0"
   crs:ParametricDarks="0"
   crs:ParametricLights="0"
   crs:ParametricHighlights="0"
   crs:ParametricShadowSplit="18"
   crs:ParametricMidtoneSplit="36"
   crs:ParametricHighlightSplit="61"
   crs:SharpenRadius="+1.0"
   crs:SharpenDetail="25"
   crs:SharpenEdgeMasking="0"
   crs:GrainAmount="15"
   crs:GrainSize="15"
   crs:GrainFrequency="20"
   crs:Contrast2012="0"
   crs:Highlights2012="-25"
   crs:Shadows2012="+20"
   crs:Whites2012="-35"
   crs:Blacks2012="+40"
   crs:Clarity2012="0"
   crs:ConvertToGrayscale="False"
   crs:ToneCurveName2012="Kodak Elite 50 II ++"
   crs:CameraProfile="Elite II 50 - SO"
   crs:HasSettings="True">
   <crs:Name>
    <rdf:Alt>
     <rdf:li xml:lang="x-default">SO - Kodak Elite 50 II ++</rdf:li>
    </rdf:Alt>
   </crs:Name>
   <crs:ShortName>
    <rdf:Alt>
     <rdf:li xml:lang="x-default"/>
    </rdf:Alt>
   </crs:ShortName>
   <crs:SortName>
    <rdf:Alt>
     <rdf:li xml:lang="x-default"/>
    </rdf:Alt>
   </crs:SortName>
   <crs:Group>
    <rdf:Alt>
     <rdf:li xml:lang="x-default">07 FujiSensia绿 AgfaUltra绿色蓝色        
 Ektachrome高饱和风光 Elite城市摄影</rdf:li>
    </rdf:Alt>
   </crs:Group>
   <crs:Description>
    <rdf:Alt>
     <rdf:li xml:lang="x-default"/>
    </rdf:Alt>
   </crs:Description>
   <crs:ToneCurvePV2012>
    <rdf:Seq>
     <rdf:li>0, 29</rdf:li>
     <rdf:li>37, 50</rdf:li>
     <rdf:li>149, 148</rdf:li>
     <rdf:li>255, 255</rdf:li>
    </rdf:Seq>
   </crs:ToneCurvePV2012>
   <crs:ToneCurvePV2012Red>
    <rdf:Seq>
     <rdf:li>0, 0</rdf:li>
     <rdf:li>20, 6</rdf:li>
     <rdf:li>62, 36</rdf:li>
     <rdf:li>120, 125</rdf:li>
     <rdf:li>198, 210</rdf:li>
     <rdf:li>255, 255</rdf:li>
    </rdf:Seq>
   </crs:ToneCurvePV2012Red>
   <crs:ToneCurvePV2012Green>
    <rdf:Seq>
     <rdf:li>0, 0</rdf:li>
     <rdf:li>59, 42</rdf:li>
     <rdf:li>122, 124</rdf:li>
     <rdf:li>197, 213</rdf:li>
     <rdf:li>255, 251</rdf:li>
    </rdf:Seq>
   </crs:ToneCurvePV2012Green>
   <crs:ToneCurvePV2012Blue>
    <rdf:Seq>
     <rdf:li>0, 0</rdf:li>
     <rdf:li>54, 41</rdf:li>
     <rdf:li>120, 122</rdf:li>
     <rdf:li>200, 203</rdf:li>
     <rdf:li>255, 242</rdf:li>
    </rdf:Seq>
   </crs:ToneCurvePV2012Blue>
   <crs:Look
    crs:Name=""/>
  </rdf:Description>
 </rdf:RDF>
</x:xmpmeta>
