VSCO Film 01 - Sony/SO - Kodak Portra 160 ++.xmp
<x:xmpmeta xmlns:x="adobe:ns:meta/" x:xmptk="Adobe XMP Core 5.6-c140 79.160451, 2017/05/06-01:08:21        ">
 <rdf:RDF xmlns:rdf="http://www.w3.org/1999/02/22-rdf-syntax-ns#">
  <rdf:Description rdf:about=""
    xmlns:crs="http://ns.adobe.com/camera-raw-settings/1.0/"
   crs:PresetType="Normal"
   crs:Cluster="暗房商店 02 VSCO Film for Sony"
   crs:UUID="9874D8B6C648B707F5645B4C4480B883"
   crs:SupportsAmount="False"
   crs:SupportsColor="True"
   crs:SupportsMonochrome="True"
   crs:SupportsHighDynamicRange="True"
   crs:SupportsNormalDynamicRange="True"
   crs:SupportsSceneReferred="True"
   crs:SupportsOutputReferred="True"
   crs:CameraModelRestriction=""
   crs:Copyright="暗房商店 © Darkroom Store 2019-2022"
   crs:ContactInfo="https://darkroom.taobao.com"
   crs:Version="13.3"
   crs:ProcessVersion="6.7"
   crs:Saturation="+5"
   crs:Sharpness="25"
   crs:ShadowTint="0"
   crs:RedHue="-5"
   crs:RedSaturation="-5"
   crs:GreenHue="0"
   crs:GreenSaturation="0"
   crs:BlueHue="0"
   crs:BlueSaturation="0"
   crs:Vibrance="0"
   crs:HueAdjustmentRed="+8"
   crs:HueAdjustmentOrange="+2"
   crs:HueAdjustmentYellow="+15"
   crs:HueAdjustmentGreen="0"
   crs:HueAdjustmentAqua="-20"
   crs:HueAdjustmentBlue="-8"
   crs:HueAdjustmentPurple="-10"
   crs:HueAdjustmentMagenta="+15"
   crs:SaturationAdjustmentRed="-15"
   crs:SaturationAdjustmentOrange="+5"
   crs:SaturationAdjustmentYellow="-20"
   crs:SaturationAdjustmentGreen="-30"
   crs:SaturationAdjustmentAqua="-25"
   crs:SaturationAdjustmentBlue="-15"
   crs:SaturationAdjustmentPurple="-30"
   crs:SaturationAdjustmentMagenta="-25"
   crs:LuminanceAdjustmentRed="0"
   crs:LuminanceAdjustmentOrange="-6"
   crs:LuminanceAdjustmentYellow="-15"
   crs:LuminanceAdjustmentGreen="-15"
   crs:LuminanceAdjustmentAqua="+10"
   crs:LuminanceAdjustmentBlue="+15"
   crs:LuminanceAdjustmentPurple="+15"
   crs:LuminanceAdjustmentMagenta="+15"
   crs:SplitToningShadowHue="0"
   crs:SplitToningShadowSaturation="0"
   crs:SplitToningHighlightHue="30"
   crs:SplitToningHighlightSaturation="6"
   crs:SplitToningBalance="-90"
   crs:ParametricShadows="0"
   crs:ParametricDarks="0"
   crs:ParametricLights="0"
   crs:ParametricHighlights="0"
   crs:ParametricShadowSplit="21"
   crs:ParametricMidtoneSplit="36"
   crs:ParametricHighlightSplit="65"
   crs:SharpenRadius="+1.0"
   crs:SharpenDetail="25"
   crs:SharpenEdgeMasking="0"
   crs:GrainAmount="30"
   crs:GrainSize="35"
   crs:GrainFrequency="35"
   crs:Contrast2012="0"
   crs:Highlights2012="-10"
   crs:Shadows2012="+10"
   crs:Whites2012="-15"
   crs:Blacks2012="+25"
   crs:Clarity2012="0"
   crs:ConvertToGrayscale="False"
   crs:ToneCurveName2012="Custom"
   crs:CameraProfile="Kodak Portra 160 SO"
   crs:HasSettings="True">
   <crs:Name>
    <rdf:Alt>
     <rdf:li xml:lang="x-default">SO - Kodak Portra 160 ++</rdf:li>
    </rdf:Alt>
   </crs:Name>
   <crs:ShortName>
    <rdf:Alt>
     <rdf:li xml:lang="x-default"/>
    </rdf:Alt>
   </crs:ShortName>
   <crs:SortName>
    <rdf:Alt>
     <rdf:li xml:lang="x-default"/>
    </rdf:Alt>
   </crs:SortName>
   <crs:Group>
    <rdf:Alt>
     <rdf:li xml:lang="x-default">暗房商店 - VSCO Film 01 (Sony)</rdf:li>
    </rdf:Alt>
   </crs:Group>
   <crs:Description>
    <rdf:Alt>
     <rdf:li xml:lang="x-default"/>
    </rdf:Alt>
   </crs:Description>
   <crs:ToneCurvePV2012>
    <rdf:Seq>
     <rdf:li>0, 19</rdf:li>
     <rdf:li>50, 56</rdf:li>
     <rdf:li>119, 122</rdf:li>
     <rdf:li>254, 249</rdf:li>
    </rdf:Seq>
   </crs:ToneCurvePV2012>
   <crs:ToneCurvePV2012Red>
    <rdf:Seq>
     <rdf:li>0, 8</rdf:li>
     <rdf:li>24, 22</rdf:li>
     <rdf:li>108, 123</rdf:li>
     <rdf:li>170, 182</rdf:li>
     <rdf:li>255, 255</rdf:li>
    </rdf:Seq>
   </crs:ToneCurvePV2012Red>
   <crs:ToneCurvePV2012Green>
    <rdf:Seq>
     <rdf:li>0, 9</rdf:li>
     <rdf:li>24, 21</rdf:li>
     <rdf:li>107, 117</rdf:li>
     <rdf:li>169, 182</rdf:li>
     <rdf:li>227, 230</rdf:li>
     <rdf:li>255, 255</rdf:li>
    </rdf:Seq>
   </crs:ToneCurvePV2012Green>
   <crs:ToneCurvePV2012Blue>
    <rdf:Seq>
     <rdf:li>0, 0</rdf:li>
     <rdf:li>26, 13</rdf:li>
     <rdf:li>110, 117</rdf:li>
     <rdf:li>170, 179</rdf:li>
     <rdf:li>220, 224</rdf:li>
     <rdf:li>255, 255</rdf:li>
    </rdf:Seq>
   </crs:ToneCurvePV2012Blue>
   <crs:Look
    crs:Name=""/>
  </rdf:Description>
 </rdf:RDF>
</x:xmpmeta>
