05 大杂烩夜景  需关闭胶片颗粒/SO - Agfa Vista 800 Night_Tungsten +.xmp
<x:xmpmeta xmlns:x="adobe:ns:meta/" x:xmptk="Adobe XMP Core 5.6-c140 79.160451, 2017/05/06-01:08:21        ">
 <rdf:RDF xmlns:rdf="http://www.w3.org/1999/02/22-rdf-syntax-ns#">
  <rdf:Description rdf:about=""
    xmlns:crs="http://ns.adobe.com/camera-raw-settings/1.0/"
   crs:PresetType="Normal"
   crs:Cluster="  02 VSCO Film for Sony"
   crs:UUID="6421692BB0930AE24DA388514ADDB3AB"
   crs:SupportsAmount="False"
   crs:SupportsColor="True"
   crs:SupportsMonochrome="True"
   crs:SupportsHighDynamicRange="True"
   crs:SupportsNormalDynamicRange="True"
   crs:SupportsSceneReferred="True"
   crs:SupportsOutputReferred="True"
   crs:CameraModelRestriction=""
   crs:Copyright=" bojun1995 ©"
   crs:ContactInfo="bojun1995@github.com"
   crs:Version="13.3"
   crs:ProcessVersion="6.7"
   crs:Saturation="-10"
   crs:Sharpness="0"
   crs:ShadowTint="-4"
   crs:RedHue="+15"
   crs:RedSaturation="+60"
   crs:GreenHue="+40"
   crs:GreenSaturation="-45"
   crs:BlueHue="-5"
   crs:BlueSaturation="-30"
   crs:Vibrance="0"
   crs:HueAdjustmentRed="+15"
   crs:HueAdjustmentOrange="+10"
   crs:HueAdjustmentYellow="+5"
   crs:HueAdjustmentGreen="0"
   crs:HueAdjustmentAqua="+10"
   crs:HueAdjustmentBlue="-10"
   crs:HueAdjustmentPurple="0"
   crs:HueAdjustmentMagenta="+5"
   crs:SaturationAdjustmentRed="-25"
   crs:SaturationAdjustmentOrange="-5"
   crs:SaturationAdjustmentYellow="-5"
   crs:SaturationAdjustmentGreen="-30"
   crs:SaturationAdjustmentAqua="-35"
   crs:SaturationAdjustmentBlue="-25"
   crs:SaturationAdjustmentPurple="-45"
   crs:SaturationAdjustmentMagenta="-40"
   crs:LuminanceAdjustmentRed="0"
   crs:LuminanceAdjustmentOrange="0"
   crs:LuminanceAdjustmentYellow="+10"
   crs:LuminanceAdjustmentGreen="0"
   crs:LuminanceAdjustmentAqua="+15"
   crs:LuminanceAdjustmentBlue="-25"
   crs:LuminanceAdjustmentPurple="-5"
   crs:LuminanceAdjustmentMagenta="+10"
   crs:SplitToningShadowHue="240"
   crs:SplitToningShadowSaturation="10"
   crs:SplitToningHighlightHue="0"
   crs:SplitToningHighlightSaturation="0"
   crs:SplitToningBalance="+75"
   crs:ParametricShadows="0"
   crs:ParametricDarks="+10"
   crs:ParametricLights="+10"
   crs:ParametricHighlights="0"
   crs:ParametricShadowSplit="20"
   crs:ParametricMidtoneSplit="48"
   crs:ParametricHighlightSplit="75"
   crs:SharpenRadius="+1.0"
   crs:SharpenDetail="25"
   crs:SharpenEdgeMasking="0"
   crs:GrainAmount="35"
   crs:GrainSize="25"
   crs:GrainFrequency="85"
   crs:Contrast2012="0"
   crs:Highlights2012="-40"
   crs:Shadows2012="+30"
   crs:Whites2012="-20"
   crs:Blacks2012="+15"
   crs:Clarity2012="-10"
   crs:ConvertToGrayscale="False"
   crs:ToneCurveName2012="Vista 800 N-T +"
   crs:CameraProfile="Agfa Vista 800 - SO"
   crs:HasSettings="True">
   <crs:Name>
    <rdf:Alt>
     <rdf:li xml:lang="x-default">SO - Agfa Vista 800 Night/Tungsten +</rdf:li>
    </rdf:Alt>
   </crs:Name>
   <crs:ShortName>
    <rdf:Alt>
     <rdf:li xml:lang="x-default"/>
    </rdf:Alt>
   </crs:ShortName>
   <crs:SortName>
    <rdf:Alt>
     <rdf:li xml:lang="x-default"/>
    </rdf:Alt>
   </crs:SortName>
   <crs:Group>
    <rdf:Alt>
     <rdf:li xml:lang="x-default">05 大杂烩夜景  需关闭胶片颗粒</rdf:li>
    </rdf:Alt>
   </crs:Group>
   <crs:Description>
    <rdf:Alt>
     <rdf:li xml:lang="x-default"/>
    </rdf:Alt>
   </crs:Description>
   <crs:ToneCurvePV2012>
    <rdf:Seq>
     <rdf:li>0, 52</rdf:li>
     <rdf:li>76, 76</rdf:li>
     <rdf:li>133, 133</rdf:li>
     <rdf:li>185, 189</rdf:li>
     <rdf:li>255, 245</rdf:li>
    </rdf:Seq>
   </crs:ToneCurvePV2012>
   <crs:ToneCurvePV2012Red>
    <rdf:Seq>
     <rdf:li>0, 0</rdf:li>
     <rdf:li>37, 9</rdf:li>
     <rdf:li>83, 62</rdf:li>
     <rdf:li>117, 121</rdf:li>
     <rdf:li>174, 196</rdf:li>
     <rdf:li>255, 255</rdf:li>
    </rdf:Seq>
   </crs:ToneCurvePV2012Red>
   <crs:ToneCurvePV2012Green>
    <rdf:Seq>
     <rdf:li>0, 0</rdf:li>
     <rdf:li>32, 10</rdf:li>
     <rdf:li>80, 65</rdf:li>
     <rdf:li>114, 120</rdf:li>
     <rdf:li>175, 194</rdf:li>
     <rdf:li>255, 255</rdf:li>
    </rdf:Seq>
   </crs:ToneCurvePV2012Green>
   <crs:ToneCurvePV2012Blue>
    <rdf:Seq>
     <rdf:li>0, 11</rdf:li>
     <rdf:li>56, 57</rdf:li>
     <rdf:li>114, 117</rdf:li>
     <rdf:li>180, 189</rdf:li>
     <rdf:li>254, 246</rdf:li>
    </rdf:Seq>
   </crs:ToneCurvePV2012Blue>
   <crs:Look
    crs:Name=""/>
  </rdf:Description>
 </rdf:RDF>
</x:xmpmeta>
