05 大杂烩夜景  需关闭胶片颗粒/SO - Kodak Royal Gold 400 Night_Tungsten ++.xmp
<x:xmpmeta xmlns:x="adobe:ns:meta/" x:xmptk="Adobe XMP Core 5.6-c140 79.160451, 2017/05/06-01:08:21        ">
 <rdf:RDF xmlns:rdf="http://www.w3.org/1999/02/22-rdf-syntax-ns#">
  <rdf:Description rdf:about=""
    xmlns:crs="http://ns.adobe.com/camera-raw-settings/1.0/"
   crs:PresetType="Normal"
   crs:Cluster="  02 VSCO Film for Sony"
   crs:UUID="EA4FA0A3D5EF24B7EBE6792AF9BBD771"
   crs:SupportsAmount="False"
   crs:SupportsColor="True"
   crs:SupportsMonochrome="True"
   crs:SupportsHighDynamicRange="True"
   crs:SupportsNormalDynamicRange="True"
   crs:SupportsSceneReferred="True"
   crs:SupportsOutputReferred="True"
   crs:CameraModelRestriction=""
   crs:Copyright=" bojun1995 ©"
   crs:ContactInfo="bojun1995@github.com"
   crs:Version="13.3"
   crs:ProcessVersion="6.7"
   crs:Saturation="0"
   crs:Sharpness="0"
   crs:ShadowTint="-2"
   crs:RedHue="+30"
   crs:RedSaturation="+30"
   crs:GreenHue="+45"
   crs:GreenSaturation="-20"
   crs:BlueHue="+5"
   crs:BlueSaturation="-30"
   crs:Vibrance="0"
   crs:HueAdjustmentRed="0"
   crs:HueAdjustmentOrange="+2"
   crs:HueAdjustmentYellow="+5"
   crs:HueAdjustmentGreen="0"
   crs:HueAdjustmentAqua="+10"
   crs:HueAdjustmentBlue="0"
   crs:HueAdjustmentPurple="0"
   crs:HueAdjustmentMagenta="0"
   crs:SaturationAdjustmentRed="-25"
   crs:SaturationAdjustmentOrange="-15"
   crs:SaturationAdjustmentYellow="-15"
   crs:SaturationAdjustmentGreen="-35"
   crs:SaturationAdjustmentAqua="-40"
   crs:SaturationAdjustmentBlue="-15"
   crs:SaturationAdjustmentPurple="-45"
   crs:SaturationAdjustmentMagenta="-35"
   crs:LuminanceAdjustmentRed="-25"
   crs:LuminanceAdjustmentOrange="-5"
   crs:LuminanceAdjustmentYellow="+10"
   crs:LuminanceAdjustmentGreen="+10"
   crs:LuminanceAdjustmentAqua="+15"
   crs:LuminanceAdjustmentBlue="-15"
   crs:LuminanceAdjustmentPurple="+20"
   crs:LuminanceAdjustmentMagenta="0"
   crs:SplitToningShadowHue="0"
   crs:SplitToningShadowSaturation="0"
   crs:SplitToningHighlightHue="0"
   crs:SplitToningHighlightSaturation="0"
   crs:SplitToningBalance="0"
   crs:ParametricShadows="0"
   crs:ParametricDarks="+10"
   crs:ParametricLights="+10"
   crs:ParametricHighlights="0"
   crs:ParametricShadowSplit="14"
   crs:ParametricMidtoneSplit="60"
   crs:ParametricHighlightSplit="75"
   crs:SharpenRadius="+1.0"
   crs:SharpenDetail="25"
   crs:SharpenEdgeMasking="0"
   crs:GrainAmount="30"
   crs:GrainSize="40"
   crs:GrainFrequency="65"
   crs:Contrast2012="0"
   crs:Highlights2012="-50"
   crs:Shadows2012="+35"
   crs:Whites2012="-30"
   crs:Blacks2012="+20"
   crs:Clarity2012="-10"
   crs:ConvertToGrayscale="False"
   crs:ToneCurveName2012="Royal 400 N-T ++"
   crs:CameraProfile="Kodak Royal 400 - SO"
   crs:HasSettings="True">
   <crs:Name>
    <rdf:Alt>
     <rdf:li xml:lang="x-default">SO - Kodak Royal Gold 400 Night/Tungsten ++</rdf:li>
    </rdf:Alt>
   </crs:Name>
   <crs:ShortName>
    <rdf:Alt>
     <rdf:li xml:lang="x-default"/>
    </rdf:Alt>
   </crs:ShortName>
   <crs:SortName>
    <rdf:Alt>
     <rdf:li xml:lang="x-default"/>
    </rdf:Alt>
   </crs:SortName>
   <crs:Group>
    <rdf:Alt>
     <rdf:li xml:lang="x-default">05 大杂烩夜景  需关闭胶片颗粒</rdf:li>
    </rdf:Alt>
   </crs:Group>
   <crs:Description>
    <rdf:Alt>
     <rdf:li xml:lang="x-default"/>
    </rdf:Alt>
   </crs:Description>
   <crs:ToneCurvePV2012>
    <rdf:Seq>
     <rdf:li>0, 54</rdf:li>
     <rdf:li>33, 57</rdf:li>
     <rdf:li>69, 72</rdf:li>
     <rdf:li>125, 129</rdf:li>
     <rdf:li>183, 189</rdf:li>
     <rdf:li>255, 245</rdf:li>
    </rdf:Seq>
   </crs:ToneCurvePV2012>
   <crs:ToneCurvePV2012Red>
    <rdf:Seq>
     <rdf:li>0, 0</rdf:li>
     <rdf:li>27, 11</rdf:li>
     <rdf:li>67, 44</rdf:li>
     <rdf:li>124, 119</rdf:li>
     <rdf:li>183, 193</rdf:li>
     <rdf:li>255, 255</rdf:li>
    </rdf:Seq>
   </crs:ToneCurvePV2012Red>
   <crs:ToneCurvePV2012Green>
    <rdf:Seq>
     <rdf:li>0, 7</rdf:li>
     <rdf:li>37, 28</rdf:li>
     <rdf:li>123, 119</rdf:li>
     <rdf:li>186, 192</rdf:li>
     <rdf:li>255, 255</rdf:li>
    </rdf:Seq>
   </crs:ToneCurvePV2012Green>
   <crs:ToneCurvePV2012Blue>
    <rdf:Seq>
     <rdf:li>0, 62</rdf:li>
     <rdf:li>115, 121</rdf:li>
     <rdf:li>255, 255</rdf:li>
    </rdf:Seq>
   </crs:ToneCurvePV2012Blue>
   <crs:Look
    crs:Name=""/>
  </rdf:Description>
 </rdf:RDF>
</x:xmpmeta>
