VSCO Film 03 Consumer - Sony/SO - Time-Zero Polaroid (Expired) Cold - -.xmp
<x:xmpmeta xmlns:x="adobe:ns:meta/" x:xmptk="Adobe XMP Core 5.6-c140 79.160451, 2017/05/06-01:08:21        ">
 <rdf:RDF xmlns:rdf="http://www.w3.org/1999/02/22-rdf-syntax-ns#">
  <rdf:Description rdf:about=""
    xmlns:crs="http://ns.adobe.com/camera-raw-settings/1.0/"
   crs:PresetType="Normal"
   crs:Cluster="暗房商店 02 VSCO Film for Sony"
   crs:UUID="05D1C37B204FCB6CF126EFD3E675DAAC"
   crs:SupportsAmount="False"
   crs:SupportsColor="True"
   crs:SupportsMonochrome="True"
   crs:SupportsHighDynamicRange="True"
   crs:SupportsNormalDynamicRange="True"
   crs:SupportsSceneReferred="True"
   crs:SupportsOutputReferred="True"
   crs:CameraModelRestriction=""
   crs:Copyright="暗房商店 © Darkroom Store 2019-2022"
   crs:ContactInfo="https://darkroom.taobao.com"
   crs:Version="13.3"
   crs:ProcessVersion="6.7"
   crs:Saturation="-10"
   crs:Sharpness="15"
   crs:ShadowTint="0"
   crs:RedHue="0"
   crs:RedSaturation="-5"
   crs:GreenHue="0"
   crs:GreenSaturation="0"
   crs:BlueHue="0"
   crs:BlueSaturation="0"
   crs:Vibrance="0"
   crs:HueAdjustmentRed="-10"
   crs:HueAdjustmentOrange="+12"
   crs:HueAdjustmentYellow="0"
   crs:HueAdjustmentGreen="-20"
   crs:HueAdjustmentAqua="-15"
   crs:HueAdjustmentBlue="+50"
   crs:HueAdjustmentPurple="-30"
   crs:HueAdjustmentMagenta="-54"
   crs:SaturationAdjustmentRed="-35"
   crs:SaturationAdjustmentOrange="-25"
   crs:SaturationAdjustmentYellow="-35"
   crs:SaturationAdjustmentGreen="0"
   crs:SaturationAdjustmentAqua="-50"
   crs:SaturationAdjustmentBlue="-40"
   crs:SaturationAdjustmentPurple="-30"
   crs:SaturationAdjustmentMagenta="-34"
   crs:LuminanceAdjustmentRed="-10"
   crs:LuminanceAdjustmentOrange="-10"
   crs:LuminanceAdjustmentYellow="+10"
   crs:LuminanceAdjustmentGreen="-10"
   crs:LuminanceAdjustmentAqua="-5"
   crs:LuminanceAdjustmentBlue="+20"
   crs:LuminanceAdjustmentPurple="+30"
   crs:LuminanceAdjustmentMagenta="-10"
   crs:SplitToningShadowHue="0"
   crs:SplitToningShadowSaturation="0"
   crs:SplitToningHighlightHue="0"
   crs:SplitToningHighlightSaturation="0"
   crs:SplitToningBalance="0"
   crs:ParametricShadows="+25"
   crs:ParametricDarks="0"
   crs:ParametricLights="0"
   crs:ParametricHighlights="0"
   crs:ParametricShadowSplit="14"
   crs:ParametricMidtoneSplit="60"
   crs:ParametricHighlightSplit="75"
   crs:SharpenRadius="+1.2"
   crs:SharpenDetail="25"
   crs:SharpenEdgeMasking="0"
   crs:GrainAmount="10"
   crs:GrainSize="70"
   crs:GrainFrequency="60"
   crs:Contrast2012="0"
   crs:Highlights2012="-10"
   crs:Shadows2012="+10"
   crs:Whites2012="0"
   crs:Blacks2012="0"
   crs:Clarity2012="-5"
   crs:ConvertToGrayscale="False"
   crs:ToneCurveName2012="Time-0 Polrd Cold - -"
   crs:CameraProfile="Time-Zero Polaroid SO"
   crs:HasSettings="True">
   <crs:Name>
    <rdf:Alt>
     <rdf:li xml:lang="x-default">SO - Time-Zero Polaroid (Expired) Cold - -</rdf:li>
    </rdf:Alt>
   </crs:Name>
   <crs:ShortName>
    <rdf:Alt>
     <rdf:li xml:lang="x-default"/>
    </rdf:Alt>
   </crs:ShortName>
   <crs:SortName>
    <rdf:Alt>
     <rdf:li xml:lang="x-default"/>
    </rdf:Alt>
   </crs:SortName>
   <crs:Group>
    <rdf:Alt>
     <rdf:li xml:lang="x-default">暗房商店 - VSCO Film 03 CO (Sony)</rdf:li>
    </rdf:Alt>
   </crs:Group>
   <crs:Description>
    <rdf:Alt>
     <rdf:li xml:lang="x-default"/>
    </rdf:Alt>
   </crs:Description>
   <crs:ToneCurvePV2012>
    <rdf:Seq>
     <rdf:li>0, 42</rdf:li>
     <rdf:li>56, 77</rdf:li>
     <rdf:li>128, 145</rdf:li>
     <rdf:li>192, 192</rdf:li>
     <rdf:li>255, 231</rdf:li>
    </rdf:Seq>
   </crs:ToneCurvePV2012>
   <crs:ToneCurvePV2012Red>
    <rdf:Seq>
     <rdf:li>0, 33</rdf:li>
     <rdf:li>46, 51</rdf:li>
     <rdf:li>109, 131</rdf:li>
     <rdf:li>227, 233</rdf:li>
     <rdf:li>255, 251</rdf:li>
    </rdf:Seq>
   </crs:ToneCurvePV2012Red>
   <crs:ToneCurvePV2012Green>
    <rdf:Seq>
     <rdf:li>0, 0</rdf:li>
     <rdf:li>42, 28</rdf:li>
     <rdf:li>114, 117</rdf:li>
     <rdf:li>180, 193</rdf:li>
     <rdf:li>255, 243</rdf:li>
    </rdf:Seq>
   </crs:ToneCurvePV2012Green>
   <crs:ToneCurvePV2012Blue>
    <rdf:Seq>
     <rdf:li>0, 0</rdf:li>
     <rdf:li>51, 18</rdf:li>
     <rdf:li>134, 113</rdf:li>
     <rdf:li>227, 225</rdf:li>
     <rdf:li>255, 247</rdf:li>
    </rdf:Seq>
   </crs:ToneCurvePV2012Blue>
   <crs:Look
    crs:Name=""/>
  </rdf:Description>
 </rdf:RDF>
</x:xmpmeta>
