VSCO Film 07 - Sony/SO - Kodak Ektar 25 +.xmp
<x:xmpmeta xmlns:x="adobe:ns:meta/" x:xmptk="Adobe XMP Core 5.6-c140 79.160451, 2017/05/06-01:08:21        ">
 <rdf:RDF xmlns:rdf="http://www.w3.org/1999/02/22-rdf-syntax-ns#">
  <rdf:Description rdf:about=""
    xmlns:crs="http://ns.adobe.com/camera-raw-settings/1.0/"
   crs:PresetType="Normal"
   crs:Cluster="  02 VSCO Film for Sony"
   crs:UUID="6F9C64E7932FC08A7841747ADE796104"
   crs:SupportsAmount="False"
   crs:SupportsColor="True"
   crs:SupportsMonochrome="True"
   crs:SupportsHighDynamicRange="True"
   crs:SupportsNormalDynamicRange="True"
   crs:SupportsSceneReferred="True"
   crs:SupportsOutputReferred="True"
   crs:CameraModelRestriction=""
   crs:Copyright=" bojun1995 ©"
   crs:ContactInfo="bojun1995@github.com"
   crs:Version="13.3"
   crs:ProcessVersion="6.7"
   crs:Saturation="0"
   crs:Sharpness="25"
   crs:ShadowTint="0"
   crs:RedHue="+30"
   crs:RedSaturation="0"
   crs:GreenHue="+45"
   crs:GreenSaturation="+5"
   crs:BlueHue="0"
   crs:BlueSaturation="-10"
   crs:Vibrance="0"
   crs:HueAdjustmentRed="+15"
   crs:HueAdjustmentOrange="+15"
   crs:HueAdjustmentYellow="+5"
   crs:HueAdjustmentGreen="0"
   crs:HueAdjustmentAqua="-5"
   crs:HueAdjustmentBlue="-5"
   crs:HueAdjustmentPurple="0"
   crs:HueAdjustmentMagenta="+25"
   crs:SaturationAdjustmentRed="-15"
   crs:SaturationAdjustmentOrange="-5"
   crs:SaturationAdjustmentYellow="-10"
   crs:SaturationAdjustmentGreen="-25"
   crs:SaturationAdjustmentAqua="-20"
   crs:SaturationAdjustmentBlue="-5"
   crs:SaturationAdjustmentPurple="0"
   crs:SaturationAdjustmentMagenta="-5"
   crs:LuminanceAdjustmentRed="-20"
   crs:LuminanceAdjustmentOrange="-5"
   crs:LuminanceAdjustmentYellow="-10"
   crs:LuminanceAdjustmentGreen="-25"
   crs:LuminanceAdjustmentAqua="-10"
   crs:LuminanceAdjustmentBlue="-15"
   crs:LuminanceAdjustmentPurple="-8"
   crs:LuminanceAdjustmentMagenta="-10"
   crs:SplitToningShadowHue="0"
   crs:SplitToningShadowSaturation="0"
   crs:SplitToningHighlightHue="0"
   crs:SplitToningHighlightSaturation="0"
   crs:SplitToningBalance="0"
   crs:ParametricShadows="0"
   crs:ParametricDarks="0"
   crs:ParametricLights="0"
   crs:ParametricHighlights="0"
   crs:ParametricShadowSplit="18"
   crs:ParametricMidtoneSplit="39"
   crs:ParametricHighlightSplit="63"
   crs:SharpenRadius="+1.0"
   crs:SharpenDetail="25"
   crs:SharpenEdgeMasking="0"
   crs:GrainAmount="15"
   crs:GrainSize="20"
   crs:GrainFrequency="50"
   crs:Contrast2012="0"
   crs:Highlights2012="-20"
   crs:Shadows2012="+10"
   crs:Whites2012="-30"
   crs:Blacks2012="+20"
   crs:Clarity2012="0"
   crs:ConvertToGrayscale="False"
   crs:ToneCurveName2012="Kodak Ektar 25 +"
   crs:CameraProfile="Ektar 25 - SO"
   crs:HasSettings="True">
   <crs:Name>
    <rdf:Alt>
     <rdf:li xml:lang="x-default">SO - Kodak Ektar 25 +</rdf:li>
    </rdf:Alt>
   </crs:Name>
   <crs:ShortName>
    <rdf:Alt>
     <rdf:li xml:lang="x-default"/>
    </rdf:Alt>
   </crs:ShortName>
   <crs:SortName>
    <rdf:Alt>
     <rdf:li xml:lang="x-default"/>
    </rdf:Alt>
   </crs:SortName>
   <crs:Group>
    <rdf:Alt>
     <rdf:li xml:lang="x-default">  - VSCO Film 07 </rdf:li>
    </rdf:Alt>
   </crs:Group>
   <crs:Description>
    <rdf:Alt>
     <rdf:li xml:lang="x-default"/>
    </rdf:Alt>
   </crs:Description>
   <crs:ToneCurvePV2012>
    <rdf:Seq>
     <rdf:li>0, 12</rdf:li>
     <rdf:li>41, 43</rdf:li>
     <rdf:li>149, 147</rdf:li>
     <rdf:li>255, 255</rdf:li>
    </rdf:Seq>
   </crs:ToneCurvePV2012>
   <crs:ToneCurvePV2012Red>
    <rdf:Seq>
     <rdf:li>0, 0</rdf:li>
     <rdf:li>23, 9</rdf:li>
     <rdf:li>58, 45</rdf:li>
     <rdf:li>123, 127</rdf:li>
     <rdf:li>202, 210</rdf:li>
     <rdf:li>255, 255</rdf:li>
    </rdf:Seq>
   </crs:ToneCurvePV2012Red>
   <crs:ToneCurvePV2012Green>
    <rdf:Seq>
     <rdf:li>0, 0</rdf:li>
     <rdf:li>53, 47</rdf:li>
     <rdf:li>122, 126</rdf:li>
     <rdf:li>255, 255</rdf:li>
    </rdf:Seq>
   </crs:ToneCurvePV2012Green>
   <crs:ToneCurvePV2012Blue>
    <rdf:Seq>
     <rdf:li>0, 0</rdf:li>
     <rdf:li>20, 15</rdf:li>
     <rdf:li>124, 128</rdf:li>
     <rdf:li>202, 214</rdf:li>
     <rdf:li>255, 255</rdf:li>
    </rdf:Seq>
   </crs:ToneCurvePV2012Blue>
   <crs:Look
    crs:Name=""/>
  </rdf:Description>
 </rdf:RDF>
</x:xmpmeta>
