日系建筑/日系风光建筑_02 余晖.lrtemplate
s = {
	id = "989B93F4-DDBB-47E2-9D16-BE15E5370FD7",
	internalName = "02 - 日系精品旅拍风光[余晖]",
	title = "日系风光建筑_02 余晖",
	type = "Develop",
	value = {
		settings = {
			AutoLateralCA = 0,
			Blacks2012 = -25,
			BlueHue = -25,
			BlueSaturation = -10,
			CameraProfile = "Embedded",
			ChromaticAberrationB = 0,
			ChromaticAberrationR = 0,
			Clarity2012 = 0,
			ColorNoiseReduction = 25,
			ColorNoiseReductionDetail = 50,
			ColorNoiseReductionSmoothness = 50,
			Contrast2012 = -50,
			ConvertToGrayscale = false,
			Defringe = 0,
			DefringeGreenAmount = 0,
			DefringeGreenHueHi = 60,
			DefringeGreenHueLo = 40,
			DefringePurpleAmount = 0,
			DefringePurpleHueHi = 70,
			DefringePurpleHueLo = 30,
			EnableCalibration = true,
			EnableColorAdjustments = true,
			EnableDetail = true,
			EnableEffects = true,
			EnableLensCorrections = true,
			EnableSplitToning = true,
			Exposure2012 = 0,
			GrainAmount = 0,
			GrainFrequency = 50,
			GrainSize = 25,
			GreenHue = 50,
			GreenSaturation = -15,
			Highlights2012 = -55,
			HueAdjustmentAqua = -5,
			HueAdjustmentBlue = 5,
			HueAdjustmentGreen = 5,
			HueAdjustmentMagenta = -26,
			HueAdjustmentOrange = 3,
			HueAdjustmentPurple = -15,
			HueAdjustmentRed = 2,
			HueAdjustmentYellow = 5,
			LuminanceAdjustmentAqua = -35,
			LuminanceAdjustmentBlue = -38,
			LuminanceAdjustmentGreen = -89,
			LuminanceAdjustmentMagenta = 34,
			LuminanceAdjustmentOrange = 0,
			LuminanceAdjustmentPurple = 14,
			LuminanceAdjustmentRed = -16,
			LuminanceAdjustmentYellow = 0,
			LuminanceNoiseReductionContrast = 0,
			LuminanceNoiseReductionDetail = 50,
			LuminanceSmoothing = 35,
			ParametricDarks = 0,
			ParametricHighlightSplit = 75,
			ParametricHighlights = 0,
			ParametricLights = 0,
			ParametricMidtoneSplit = 50,
			ParametricShadowSplit = 25,
			ParametricShadows = 0,
			PostCropVignetteAmount = 0,
			PostCropVignetteFeather = 50,
			PostCropVignetteHighlightContrast = 0,
			PostCropVignetteMidpoint = 50,
			PostCropVignetteRoundness = 0,
			PostCropVignetteStyle = 1,
			ProcessVersion = "6.7",
			RedHue = 40,
			RedSaturation = -10,
			Saturation = 0,
			SaturationAdjustmentAqua = -13,
			SaturationAdjustmentBlue = -23,
			SaturationAdjustmentGreen = -78,
			SaturationAdjustmentMagenta = -48,
			SaturationAdjustmentOrange = 0,
			SaturationAdjustmentPurple = -57,
			SaturationAdjustmentRed = -19,
			SaturationAdjustmentYellow = 0,
			ShadowTint = 0,
			Shadows2012 = 35,
			SharpenDetail = 25,
			SharpenEdgeMasking = 0,
			SharpenRadius = 1,
			Sharpness = 85,
			SplitToningBalance = 0,
			SplitToningHighlightHue = 215,
			SplitToningHighlightSaturation = 6,
			SplitToningShadowHue = 215,
			SplitToningShadowSaturation = 3,
			ToneCurveName2012 = "Custom",
			ToneCurvePV2012 = {
				0,
				25,
				34,
				42,
				64,
				67,
				126,
				145,
				195,
				217,
				255,
				255,
			},
			ToneCurvePV2012Blue = {
				0,
				0,
				40,
				13,
				88,
				63,
				128,
				120,
				197,
				206,
				255,
				255,
			},
			ToneCurvePV2012Green = {
				0,
				0,
				39,
				11,
				91,
				63,
				130,
				121,
				198,
				205,
				255,
				255,
			},
			ToneCurvePV2012Red = {
				0,
				0,
				39,
				9,
				89,
				60,
				127,
				120,
				197,
				206,
				255,
				255,
			},
			Vibrance = 0,
			VignetteAmount = 0,
			VignetteMidpoint = 50,
			WhiteBalance = "As Shot",
			Whites2012 = 35,
		},
		uuid = "1D2411F8-0EBB-4B13-899F-57AEA31DF5AD",
	},
	version = 0,
}
