日系建筑/日系风光建筑_04 余晖.lrtemplate
s = {
	id = "9A003023-41D9-41E9-BA74-84D06EF56937",
	internalName = "04 - 日系精品旅拍风光[余晖]",
	title = "日系风光建筑_04 余晖",
	type = "Develop",
	value = {
		settings = {
			AutoLateralCA = 0,
			Blacks2012 = -35,
			BlueHue = -35,
			BlueSaturation = -10,
			CameraProfile = "Embedded",
			ChromaticAberrationB = 0,
			ChromaticAberrationR = 0,
			Clarity2012 = 0,
			ColorNoiseReduction = 25,
			ColorNoiseReductionDetail = 50,
			ColorNoiseReductionSmoothness = 50,
			Contrast2012 = -85,
			ConvertToGrayscale = false,
			Defringe = 0,
			DefringeGreenAmount = 0,
			DefringeGreenHueHi = 60,
			DefringeGreenHueLo = 40,
			DefringePurpleAmount = 0,
			DefringePurpleHueHi = 70,
			DefringePurpleHueLo = 30,
			EnableCalibration = true,
			EnableColorAdjustments = true,
			EnableDetail = true,
			EnableEffects = true,
			EnableLensCorrections = true,
			EnableSplitToning = true,
			Exposure2012 = 0,
			GrainAmount = 0,
			GrainFrequency = 50,
			GrainSize = 25,
			GreenHue = 50,
			GreenSaturation = -15,
			Highlights2012 = -10,
			HueAdjustmentAqua = -21,
			HueAdjustmentBlue = 21,
			HueAdjustmentGreen = 15,
			HueAdjustmentMagenta = 0,
			HueAdjustmentOrange = 3,
			HueAdjustmentPurple = 0,
			HueAdjustmentRed = 4,
			HueAdjustmentYellow = -53,
			LuminanceAdjustmentAqua = 26,
			LuminanceAdjustmentBlue = 53,
			LuminanceAdjustmentGreen = -10,
			LuminanceAdjustmentMagenta = 34,
			LuminanceAdjustmentOrange = 5,
			LuminanceAdjustmentPurple = 0,
			LuminanceAdjustmentRed = 15,
			LuminanceAdjustmentYellow = 23,
			LuminanceNoiseReductionContrast = 0,
			LuminanceNoiseReductionDetail = 50,
			LuminanceSmoothing = 38,
			ParametricDarks = 0,
			ParametricHighlightSplit = 75,
			ParametricHighlights = 0,
			ParametricLights = 0,
			ParametricMidtoneSplit = 50,
			ParametricShadowSplit = 25,
			ParametricShadows = 0,
			PostCropVignetteAmount = 0,
			PostCropVignetteFeather = 50,
			PostCropVignetteHighlightContrast = 0,
			PostCropVignetteMidpoint = 50,
			PostCropVignetteRoundness = 0,
			PostCropVignetteStyle = 1,
			ProcessVersion = "6.7",
			RedHue = 40,
			RedSaturation = -10,
			Saturation = -5,
			SaturationAdjustmentAqua = 0,
			SaturationAdjustmentBlue = -25,
			SaturationAdjustmentGreen = -10,
			SaturationAdjustmentMagenta = 0,
			SaturationAdjustmentOrange = 5,
			SaturationAdjustmentPurple = 0,
			SaturationAdjustmentRed = -25,
			SaturationAdjustmentYellow = -19,
			ShadowTint = 0,
			Shadows2012 = 35,
			SharpenDetail = 25,
			SharpenEdgeMasking = 0,
			SharpenRadius = 1,
			Sharpness = 128,
			SplitToningBalance = 0,
			SplitToningHighlightHue = 215,
			SplitToningHighlightSaturation = 12,
			SplitToningShadowHue = 215,
			SplitToningShadowSaturation = 12,
			ToneCurveName2012 = "Custom",
			ToneCurvePV2012 = {
				0,
				43,
				19,
				51,
				63,
				85,
				127,
				164,
				194,
				230,
				255,
				255,
			},
			ToneCurvePV2012Blue = {
				0,
				0,
				40,
				13,
				88,
				63,
				128,
				120,
				197,
				206,
				255,
				255,
			},
			ToneCurvePV2012Green = {
				0,
				0,
				39,
				11,
				91,
				63,
				130,
				121,
				198,
				205,
				255,
				255,
			},
			ToneCurvePV2012Red = {
				0,
				0,
				39,
				9,
				89,
				60,
				127,
				120,
				197,
				206,
				255,
				255,
			},
			Vibrance = -5,
			VignetteAmount = 0,
			VignetteMidpoint = 50,
			WhiteBalance = "As Shot",
			Whites2012 = 60,
		},
		uuid = "1E88824A-FF91-45BE-B9DE-339F29684F6A",
	},
	version = 0,
}
