其他胶片模拟/NIKON-KODAK UltraMax 400.Ver.1.0.xmp
<x:xmpmeta xmlns:x="adobe:ns:meta/" x:xmptk="Adobe XMP Core 7.0-c000 1.000000, 0000/00/00-00:00:00        ">
 <rdf:RDF xmlns:rdf="http://www.w3.org/1999/02/22-rdf-syntax-ns#">
  <rdf:Description rdf:about=""
    xmlns:crs="http://ns.adobe.com/camera-raw-settings/1.0/"
   crs:PresetType="Normal"
   crs:Cluster=""
   crs:UUID="9F0BE00CCAE2B5419EDA16B9D08AC3FA"
   crs:SupportsAmount2="True"
   crs:SupportsAmount="True"
   crs:SupportsColor="True"
   crs:SupportsMonochrome="True"
   crs:SupportsHighDynamicRange="True"
   crs:SupportsNormalDynamicRange="True"
   crs:SupportsSceneReferred="True"
   crs:SupportsOutputReferred="True"
   crs:RequiresRGBTables="False"
   crs:CameraModelRestriction=""
   crs:Copyright=""
   crs:ContactInfo=""
   crs:Version="16.0"
   crs:ProcessVersion="15.4"
   crs:WhiteBalance="As Shot"
   crs:Exposure2012="0.00"
   crs:Contrast2012="0"
   crs:Highlights2012="-90"
   crs:Shadows2012="+40"
   crs:Whites2012="-10"
   crs:Blacks2012="+40"
   crs:Texture="0"
   crs:Clarity2012="0"
   crs:Dehaze="+10"
   crs:Vibrance="+10"
   crs:Saturation="-20"
   crs:ParametricShadows="+20"
   crs:ParametricDarks="+20"
   crs:ParametricLights="+10"
   crs:ParametricHighlights="-29"
   crs:ParametricShadowSplit="20"
   crs:ParametricMidtoneSplit="48"
   crs:ParametricHighlightSplit="75"
   crs:Sharpness="0"
   crs:LuminanceSmoothing="0"
   crs:ColorNoiseReduction="25"
   crs:ColorNoiseReductionDetail="50"
   crs:ColorNoiseReductionSmoothness="50"
   crs:HueAdjustmentRed="+10"
   crs:HueAdjustmentOrange="+10"
   crs:HueAdjustmentYellow="+25"
   crs:HueAdjustmentGreen="+22"
   crs:HueAdjustmentAqua="-10"
   crs:HueAdjustmentBlue="-10"
   crs:HueAdjustmentPurple="+20"
   crs:HueAdjustmentMagenta="+52"
   crs:SaturationAdjustmentRed="+35"
   crs:SaturationAdjustmentOrange="+10"
   crs:SaturationAdjustmentYellow="+10"
   crs:SaturationAdjustmentGreen="-5"
   crs:SaturationAdjustmentAqua="-10"
   crs:SaturationAdjustmentBlue="+10"
   crs:SaturationAdjustmentPurple="-35"
   crs:SaturationAdjustmentMagenta="+34"
   crs:LuminanceAdjustmentRed="+70"
   crs:LuminanceAdjustmentOrange="-20"
   crs:LuminanceAdjustmentYellow="+60"
   crs:LuminanceAdjustmentGreen="-20"
   crs:LuminanceAdjustmentAqua="-20"
   crs:LuminanceAdjustmentBlue="-15"
   crs:LuminanceAdjustmentPurple="+28"
   crs:LuminanceAdjustmentMagenta="+38"
   crs:SplitToningShadowHue="0"
   crs:SplitToningShadowSaturation="0"
   crs:SplitToningHighlightHue="0"
   crs:SplitToningHighlightSaturation="0"
   crs:SplitToningBalance="0"
   crs:ColorGradeMidtoneHue="36"
   crs:ColorGradeMidtoneSat="12"
   crs:ColorGradeShadowLum="0"
   crs:ColorGradeMidtoneLum="0"
   crs:ColorGradeHighlightLum="0"
   crs:ColorGradeBlending="50"
   crs:ColorGradeGlobalHue="0"
   crs:ColorGradeGlobalSat="0"
   crs:ColorGradeGlobalLum="0"
   crs:AutoLateralCA="1"
   crs:LensProfileEnable="1"
   crs:LensManualDistortionAmount="0"
   crs:VignetteAmount="0"
   crs:DefringePurpleAmount="0"
   crs:DefringePurpleHueLo="30"
   crs:DefringePurpleHueHi="70"
   crs:DefringeGreenAmount="0"
   crs:DefringeGreenHueLo="40"
   crs:DefringeGreenHueHi="60"
   crs:PerspectiveUpright="0"
   crs:PerspectiveVertical="0"
   crs:PerspectiveHorizontal="0"
   crs:PerspectiveRotate="0.0"
   crs:PerspectiveAspect="0"
   crs:PerspectiveScale="100"
   crs:PerspectiveX="0.00"
   crs:PerspectiveY="0.00"
   crs:GrainAmount="20"
   crs:GrainSize="40"
   crs:GrainFrequency="60"
   crs:PostCropVignetteAmount="0"
   crs:ShadowTint="+10"
   crs:RedHue="0"
   crs:RedSaturation="0"
   crs:GreenHue="0"
   crs:GreenSaturation="0"
   crs:BlueHue="0"
   crs:BlueSaturation="0"
   crs:HDREditMode="0"
   crs:OverrideLookVignette="False"
   crs:ToneCurveName2012="Custom"
   crs:LensProfileSetup="LensDefaults"
   crs:HasSettings="True"
   crs:CropConstrainToWarp="0">
   <crs:Name>
    <rdf:Alt>
     <rdf:li xml:lang="x-default">NIKON-KODAK UltraMax 400.Ver.1.0</rdf:li>
    </rdf:Alt>
   </crs:Name>
   <crs:ShortName>
    <rdf:Alt>
     <rdf:li xml:lang="x-default"/>
    </rdf:Alt>
   </crs:ShortName>
   <crs:SortName>
    <rdf:Alt>
     <rdf:li xml:lang="x-default"/>
    </rdf:Alt>
   </crs:SortName>
   <crs:Group>
    <rdf:Alt>
     <rdf:li xml:lang="x-default">NIKON R-FILM</rdf:li>
    </rdf:Alt>
   </crs:Group>
   <crs:Description>
    <rdf:Alt>
     <rdf:li xml:lang="x-default"/>
    </rdf:Alt>
   </crs:Description>
   <crs:ToneCurvePV2012>
    <rdf:Seq>
     <rdf:li>0, 0</rdf:li>
     <rdf:li>255, 255</rdf:li>
    </rdf:Seq>
   </crs:ToneCurvePV2012>
   <crs:ToneCurvePV2012Red>
    <rdf:Seq>
     <rdf:li>0, 0</rdf:li>
     <rdf:li>27, 11</rdf:li>
     <rdf:li>81, 64</rdf:li>
     <rdf:li>116, 122</rdf:li>
     <rdf:li>175, 201</rdf:li>
     <rdf:li>255, 255</rdf:li>
    </rdf:Seq>
   </crs:ToneCurvePV2012Red>
   <crs:ToneCurvePV2012Green>
    <rdf:Seq>
     <rdf:li>0, 0</rdf:li>
     <rdf:li>35, 17</rdf:li>
     <rdf:li>80, 65</rdf:li>
     <rdf:li>115, 119</rdf:li>
     <rdf:li>177, 204</rdf:li>
     <rdf:li>255, 255</rdf:li>
    </rdf:Seq>
   </crs:ToneCurvePV2012Green>
   <crs:ToneCurvePV2012Blue>
    <rdf:Seq>
     <rdf:li>0, 0</rdf:li>
     <rdf:li>32, 19</rdf:li>
     <rdf:li>78, 66</rdf:li>
     <rdf:li>113, 117</rdf:li>
     <rdf:li>174, 198</rdf:li>
     <rdf:li>255, 255</rdf:li>
    </rdf:Seq>
   </crs:ToneCurvePV2012Blue>
   <crs:Look>
    <rdf:Description
     crs:Name="NIKON-KODAK UltraMax 400"
     crs:Amount="0.8"
     crs:UUID="313B309A1778C84CA8CAD433BB83A5AD"
     crs:Stubbed="true">
    <crs:Group>
     <rdf:Alt>
      <rdf:li xml:lang="x-default">Nikon R-FILM</rdf:li>
     </rdf:Alt>
    </crs:Group>
    </rdf:Description>
   </crs:Look>
  </rdf:Description>
 </rdf:RDF>
</x:xmpmeta>
