VSCO 精选胶片/SO - Fuji FP-100c.xmp
<x:xmpmeta xmlns:x="adobe:ns:meta/" x:xmptk="Adobe XMP Core 5.6-c140 79.160451, 2017/05/06-01:08:21        ">
 <rdf:RDF xmlns:rdf="http://www.w3.org/1999/02/22-rdf-syntax-ns#">
  <rdf:Description rdf:about=""
    xmlns:crs="http://ns.adobe.com/camera-raw-settings/1.0/"
   crs:PresetType="Normal"
   crs:Cluster="  02 VSCO Film Essentials"
   crs:UUID="5FCDBDCB324FE51866A9CBFA7CCBB00C"
   crs:SupportsAmount="False"
   crs:SupportsColor="True"
   crs:SupportsMonochrome="True"
   crs:SupportsHighDynamicRange="True"
   crs:SupportsNormalDynamicRange="True"
   crs:SupportsSceneReferred="True"
   crs:SupportsOutputReferred="True"
   crs:CameraModelRestriction=""
   crs:Copyright=" bojun1995 ©"
   crs:ContactInfo="bojun1995@github.com"
   crs:Version="13.3"
   crs:ProcessVersion="6.7"
   crs:Contrast2012="0"
   crs:Highlights2012="-15"
   crs:Shadows2012="+20"
   crs:Whites2012="-10"
   crs:Blacks2012="+5"
   crs:Clarity2012="-10"
   crs:Vibrance="0"
   crs:Saturation="-5"
   crs:ParametricShadows="0"
   crs:ParametricDarks="0"
   crs:ParametricLights="0"
   crs:ParametricHighlights="0"
   crs:ParametricShadowSplit="25"
   crs:ParametricMidtoneSplit="50"
   crs:ParametricHighlightSplit="75"
   crs:Sharpness="0"
   crs:HueAdjustmentRed="+15"
   crs:HueAdjustmentOrange="0"
   crs:HueAdjustmentYellow="-5"
   crs:HueAdjustmentGreen="0"
   crs:HueAdjustmentAqua="+25"
   crs:HueAdjustmentBlue="0"
   crs:HueAdjustmentPurple="+30"
   crs:HueAdjustmentMagenta="0"
   crs:SaturationAdjustmentRed="-15"
   crs:SaturationAdjustmentOrange="-16"
   crs:SaturationAdjustmentYellow="0"
   crs:SaturationAdjustmentGreen="-30"
   crs:SaturationAdjustmentAqua="-20"
   crs:SaturationAdjustmentBlue="-30"
   crs:SaturationAdjustmentPurple="0"
   crs:SaturationAdjustmentMagenta="-45"
   crs:LuminanceAdjustmentRed="-25"
   crs:LuminanceAdjustmentOrange="-10"
   crs:LuminanceAdjustmentYellow="-25"
   crs:LuminanceAdjustmentGreen="-30"
   crs:LuminanceAdjustmentAqua="-15"
   crs:LuminanceAdjustmentBlue="-40"
   crs:LuminanceAdjustmentPurple="0"
   crs:LuminanceAdjustmentMagenta="-20"
   crs:SplitToningShadowHue="0"
   crs:SplitToningShadowSaturation="0"
   crs:SplitToningHighlightHue="0"
   crs:SplitToningHighlightSaturation="0"
   crs:SplitToningBalance="0"
   crs:ColorGradeMidtoneHue="0"
   crs:ColorGradeMidtoneSat="0"
   crs:ColorGradeShadowLum="0"
   crs:ColorGradeMidtoneLum="0"
   crs:ColorGradeHighlightLum="0"
   crs:ColorGradeBlending="50"
   crs:ColorGradeGlobalHue="0"
   crs:ColorGradeGlobalSat="0"
   crs:ColorGradeGlobalLum="0"
   crs:GrainAmount="10"
   crs:GrainSize="10"
   crs:GrainFrequency="10"
   crs:ShadowTint="0"
   crs:RedHue="+10"
   crs:RedSaturation="-15"
   crs:GreenHue="-5"
   crs:GreenSaturation="0"
   crs:BlueHue="0"
   crs:BlueSaturation="+12"
   crs:ConvertToGrayscale="False"
   crs:ToneCurveName2012="Fuji FP-100c"
   crs:CameraProfile="Fuji FP-100c SO"
   crs:HasSettings="True">
   <crs:Name>
    <rdf:Alt>
     <rdf:li xml:lang="x-default">SO - Fuji FP-100c</rdf:li>
    </rdf:Alt>
   </crs:Name>
   <crs:ShortName>
    <rdf:Alt>
     <rdf:li xml:lang="x-default"/>
    </rdf:Alt>
   </crs:ShortName>
   <crs:SortName>
    <rdf:Alt>
     <rdf:li xml:lang="x-default"/>
    </rdf:Alt>
   </crs:SortName>
   <crs:Group>
    <rdf:Alt>
     <rdf:li xml:lang="x-default">VSCO 精选胶片</rdf:li>
    </rdf:Alt>
   </crs:Group>
   <crs:Description>
    <rdf:Alt>
     <rdf:li xml:lang="x-default"/>
    </rdf:Alt>
   </crs:Description>
   <crs:ToneCurvePV2012>
    <rdf:Seq>
     <rdf:li>0, 25</rdf:li>
     <rdf:li>54, 81</rdf:li>
     <rdf:li>135, 154</rdf:li>
     <rdf:li>201, 206</rdf:li>
     <rdf:li>255, 251</rdf:li>
    </rdf:Seq>
   </crs:ToneCurvePV2012>
   <crs:ToneCurvePV2012Red>
    <rdf:Seq>
     <rdf:li>0, 0</rdf:li>
     <rdf:li>36, 19</rdf:li>
     <rdf:li>119, 126</rdf:li>
     <rdf:li>218, 234</rdf:li>
     <rdf:li>255, 254</rdf:li>
    </rdf:Seq>
   </crs:ToneCurvePV2012Red>
   <crs:ToneCurvePV2012Green>
    <rdf:Seq>
     <rdf:li>0, 9</rdf:li>
     <rdf:li>39, 21</rdf:li>
     <rdf:li>122, 129</rdf:li>
     <rdf:li>220, 235</rdf:li>
     <rdf:li>255, 255</rdf:li>
    </rdf:Seq>
   </crs:ToneCurvePV2012Green>
   <crs:ToneCurvePV2012Blue>
    <rdf:Seq>
     <rdf:li>0, 7</rdf:li>
     <rdf:li>33, 21</rdf:li>
     <rdf:li>124, 131</rdf:li>
     <rdf:li>221, 236</rdf:li>
     <rdf:li>255, 255</rdf:li>
    </rdf:Seq>
   </crs:ToneCurvePV2012Blue>
  </rdf:Description>
 </rdf:RDF>
</x:xmpmeta>
