05 大杂烩 【agfa德味 红色】【柯达gold 黄色】/SO - Fuji Neopan 400 - -.xmp
<x:xmpmeta xmlns:x="adobe:ns:meta/" x:xmptk="Adobe XMP Core 5.6-c140 79.160451, 2017/05/06-01:08:21        ">
 <rdf:RDF xmlns:rdf="http://www.w3.org/1999/02/22-rdf-syntax-ns#">
  <rdf:Description rdf:about=""
    xmlns:crs="http://ns.adobe.com/camera-raw-settings/1.0/"
   crs:PresetType="Normal"
   crs:Cluster="  02 VSCO Film for Sony"
   crs:UUID="76CA2880C0E171D14EBCF8094EACF677"
   crs:SupportsAmount="False"
   crs:SupportsColor="True"
   crs:SupportsMonochrome="True"
   crs:SupportsHighDynamicRange="True"
   crs:SupportsNormalDynamicRange="True"
   crs:SupportsSceneReferred="True"
   crs:SupportsOutputReferred="True"
   crs:CameraModelRestriction=""
   crs:Copyright=" bojun1995 ©"
   crs:ContactInfo="bojun1995@github.com"
   crs:Version="13.3"
   crs:ProcessVersion="6.7"
   crs:Sharpness="25"
   crs:ShadowTint="0"
   crs:RedHue="0"
   crs:RedSaturation="-25"
   crs:GreenHue="0"
   crs:GreenSaturation="+25"
   crs:BlueHue="0"
   crs:BlueSaturation="-35"
   crs:GrayMixerRed="+10"
   crs:GrayMixerOrange="-10"
   crs:GrayMixerYellow="0"
   crs:GrayMixerGreen="-20"
   crs:GrayMixerAqua="0"
   crs:GrayMixerBlue="0"
   crs:GrayMixerPurple="+20"
   crs:GrayMixerMagenta="+10"
   crs:SplitToningShadowHue="0"
   crs:SplitToningShadowSaturation="0"
   crs:SplitToningHighlightHue="0"
   crs:SplitToningHighlightSaturation="0"
   crs:SplitToningBalance="0"
   crs:ParametricShadows="0"
   crs:ParametricDarks="0"
   crs:ParametricLights="0"
   crs:ParametricHighlights="0"
   crs:ParametricShadowSplit="14"
   crs:ParametricMidtoneSplit="60"
   crs:ParametricHighlightSplit="75"
   crs:SharpenRadius="+1.0"
   crs:SharpenDetail="25"
   crs:SharpenEdgeMasking="0"
   crs:GrainAmount="0"
   crs:Contrast2012="0"
   crs:Highlights2012="-50"
   crs:Shadows2012="+45"
   crs:Whites2012="-30"
   crs:Blacks2012="+30"
   crs:Clarity2012="0"
   crs:ConvertToGrayscale="True"
   crs:ToneCurveName2012="Neopan 400 - -"
   crs:CameraProfile="Fuji Neopan 400 - SO"
   crs:HasSettings="True">
   <crs:Name>
    <rdf:Alt>
     <rdf:li xml:lang="x-default">SO - Fuji Neopan 400 - -</rdf:li>
    </rdf:Alt>
   </crs:Name>
   <crs:ShortName>
    <rdf:Alt>
     <rdf:li xml:lang="x-default"/>
    </rdf:Alt>
   </crs:ShortName>
   <crs:SortName>
    <rdf:Alt>
     <rdf:li xml:lang="x-default"/>
    </rdf:Alt>
   </crs:SortName>
   <crs:Group>
    <rdf:Alt>
     <rdf:li xml:lang="x-default">05 大杂烩 【agfa德味 红色】【柯达gold 黄色】</rdf:li>
    </rdf:Alt>
   </crs:Group>
   <crs:Description>
    <rdf:Alt>
     <rdf:li xml:lang="x-default"/>
    </rdf:Alt>
   </crs:Description>
   <crs:ToneCurvePV2012>
    <rdf:Seq>
     <rdf:li>0, 0</rdf:li>
     <rdf:li>17, 20</rdf:li>
     <rdf:li>106, 107</rdf:li>
     <rdf:li>201, 198</rdf:li>
     <rdf:li>255, 255</rdf:li>
    </rdf:Seq>
   </crs:ToneCurvePV2012>
   <crs:ToneCurvePV2012Red>
    <rdf:Seq>
     <rdf:li>0, 0</rdf:li>
     <rdf:li>255, 255</rdf:li>
    </rdf:Seq>
   </crs:ToneCurvePV2012Red>
   <crs:ToneCurvePV2012Green>
    <rdf:Seq>
     <rdf:li>0, 0</rdf:li>
     <rdf:li>255, 255</rdf:li>
    </rdf:Seq>
   </crs:ToneCurvePV2012Green>
   <crs:ToneCurvePV2012Blue>
    <rdf:Seq>
     <rdf:li>0, 0</rdf:li>
     <rdf:li>255, 255</rdf:li>
    </rdf:Seq>
   </crs:ToneCurvePV2012Blue>
   <crs:Look
    crs:Name=""/>
  </rdf:Description>
 </rdf:RDF>
</x:xmpmeta>
